X:1
T:Title
%%score { ( 1 4 ) | ( 2 3 5 ) }
L:1/8
Q:1/4=108
M:3/4
K:Ab
V:1 treble nm="Grand Piano"
V:4 treble 
V:2 bass 
V:3 bass 
V:5 bass 
V:1
 [Ec]3 _c =c2 | [CA]4 EE | [DF]2 A2 d2 | [Ec]6 | [GB]3 =A B2 | [Ec]2 A4 | [=DF]2 [EG]2 [FA]2 | %7
w: J.~C.~Bridges * *|||||||
 [GB]4 [E,E]2 | [Ec]3 _c =c2 | d2 c3 A | [CA]2 B2 c2 | [Fd]4 F2 | [CE]2 A3 B | z2 e4 | %14
w: |||||||
 .[Ac]2 A3 B | [CA]6 | [Ec]3 _c =c2 | [CA]4 AA | B4 z2 | [=Ec]6 | d4 z2 | [EGd]2 [GB]4 | c2 z2 z2 | %23
w: |||||||||
 e4 z2 | [Ec]3 _c =c2 | d2 c3 A | [CA]2 B2 c2 | [Fd]4 FF | [CE]2 A3 [FB] |[M:7/8] [Ac]d e3 [FA]B | %30
w: |||||||
[M:3/4] [Ec]2 A3 B | [CA]6 |] %32
w: ||
V:2
 z2 z =D E2 | z2 z2 CC | z2[K:treble] F2 =E2 | A,,2 E,2 A,2 | z2 z[K:treble] _G F2 | z2 C4 | %6
 A,2 G,2 F,2 | E,2 B,,2 E,,2 | z2 z =D E2 | F2[K:treble] E3 C | z2 E2 _G2 | z2 z2 D2 | %12
 z2 C3 [E,E] | z2 c4 | z E C3 D | A,,6 | z2 z =D E2 | z2 z2 CC | D,4 [D,F,]2 | [C,G,]6 | %20
 z2 z[K:treble] d d2 | z2 E4 | z2[K:treble] B2[K:bass] [B,,B,]2 | [B,E]C D2 E2 | z2 z =D E2 | %25
 F2[K:treble] E3 C | z2 D2 E_G | z2 z2 DD | z2 C3 E, |[M:7/8][K:treble] z B [Ec]3[K:bass] z =E | %30
[M:3/4] z2 C3 D | [A,,E,]6 |] %32
V:3
 A,,6 | A,,6 | D,6[K:treble] | x6 | E,6[K:treble] | A,,6 | x6 | x6 | [A,,A,]6- | %9
 [A,,A,]6[K:treble] | A,6 | D,6 | A,,6 | AB z2 FF | E,6- | E,6 | A,,6 | A,6 | x6 | x6 | %20
 [B,,B,]6[K:treble] | E,6 | B,,4[K:treble][K:bass] z2 | E,4 z2 | A,,6- | A,,6[K:treble] | A,6 | %27
 D,6 | A,,6 |[M:7/8][K:treble] A,-A,- A,3[K:bass] [D,A,]2 |[M:3/4] E,6 | x6 |] %32
V:4
 x6 | x6 | x6 | x6 | x6 | x6 | x6 | x6 | x6 | x6 | x6 | x6 | x6 | cd z2 AB | x6 | x6 | x6 | x6 | %18
 F3- [F-A] [FB]2 | x6 | F6 | x6 | [=DA]4 [FA=d]2 | G[EA] [EB]2 z2 | x6 | x6 | x6 | x6 | x6 | %29
[M:7/8] x7 |[M:3/4] x6 | x6 |] %32
V:5
 x6 | x6 | x2[K:treble] x4 | x6 | x3[K:treble] x3 | x6 | x6 | x6 | x6 | x2[K:treble] x4 | x6 | x6 | %12
 x6 | A,6 | x6 | x6 | x6 | x6 | x6 | x6 | x3[K:treble] x3 | x6 | x2[K:treble] x2[K:bass] x2 | x6 | %24
 x6 | x2[K:treble] x4 | x6 | x6 | x6 |[M:7/8][K:treble] x5[K:bass] x2 |[M:3/4] x6 | x6 |] %32

